src/assets/icons/utensils-crossed.svg

<svg width="24" height="24" viewBox="0 0 24 24" fill="none" xmlns="http://www.w3.org/2000/svg">
<path d="M 14.1049 14.1012 L 5.9149 5.9112 C 5.6355 6.1849 5.4136 6.5116 5.2620 6.8722 C 5.1105 7.2328 5.0325 7.6200 5.0325 8.0112 C 5.0325 8.4023 5.1105 8.7895 5.2620 9.1501 C 5.4136 9.5107 5.6355 9.8374 5.9149 10.1112 L 11.0249 15.2212 C 11.5149 15.7112 12.4249 15.7112 12.9849 15.2212 L 14.1049 14.1012 Z M 14.1049 14.1012 L 19.0049 19.0012" stroke="#314158" stroke-width="1.5" stroke-linecap="round" stroke-linejoin="round"/>
<path d="M 14.8055 4.9992 L 13.1955 6.6092 C 12.8107 7.0017 12.5952 7.5295 12.5952 8.0792 C 12.5952 8.6289 12.8107 9.1566 13.1955 9.5492 L 14.4555 10.8092 C 14.8480 11.1940 15.3758 11.4095 15.9255 11.4095 C 16.4752 11.4095 17.0029 11.1940 17.3955 10.8092 L 19.0055 9.1992" stroke="#314158" stroke-width="1.5" stroke-linecap="round" stroke-linejoin="round"/>
<path d="M 5.0759 18.8605 L 9.5559 14.4505" stroke="#314158" stroke-width="1.5" stroke-linecap="round" stroke-linejoin="round"/>
<path d="M 16.9045 7.0989 L 12.0045 11.9989" stroke="#314158" stroke-width="1.5" stroke-linecap="round" stroke-linejoin="round"/>
</svg>

<svg fill="none" viewBox="0 0 24 24"><path stroke="currentColor" stroke-linecap="round" stroke-linejoin="round" stroke-width="1.5" d="m14.105 14.101-8.19-8.19a2.94 2.94 0 0 0 0 4.2l5.11 5.11c.49.49 1.4.49 1.96 0zm0 0 4.9 4.9M14.806 5l-1.61 1.61a2.1 2.1 0 0 0 0 2.94l1.26 1.26a2.1 2.1 0 0 0 2.94 0l1.61-1.61M5.076 18.86l4.48-4.41M16.905 7.099l-4.9 4.9"/></svg>
